icons/1_Primary/Cuttly.svg

<svg width="1024" height="1024" viewBox="0 0 1024 1024" fill="none" xmlns="http://www.w3.org/2000/svg">
<g clip-path="url(#clip0_2_1950)">
<path d="M512 1024C794.77 1024 1024 794.77 1024 512C1024 229.23 794.77 0 512 0C229.23 0 0 229.23 0 512C0 794.77 229.23 1024 512 1024Z" fill="#9ABEFF"/>
<path d="M269.881 555.39C268.081 550.32 266.791 545.08 265.961 539.66C262.511 542.95 258.721 545.39 254.541 546.93C250.101 548.56 245.601 549.25 241.041 548.99C236.481 548.73 231.951 547.55 227.451 545.47C222.941 543.37 218.801 540.43 215.021 536.65C211.351 532.98 208.451 528.88 206.331 524.34C204.211 519.8 202.971 515.21 202.591 510.53C202.221 505.86 202.821 501.28 204.401 496.77C205.981 492.27 208.571 488.21 212.191 484.6C215.461 481.33 219.071 478.78 223.031 476.95C226.991 475.12 231.061 473.77 235.251 472.91C236.801 472.62 238.081 472.24 239.071 471.75C240.071 471.27 240.831 470.77 241.351 470.25C243.641 467.95 244.191 464.59 242.991 460.18L237.651 439.53C237.251 437.75 236.531 436.35 235.491 435.32C234.001 433.83 232.381 432.95 230.641 432.7C228.891 432.44 227.011 432.57 225.001 433.09H225.511C217.601 434.47 210.151 436.98 203.191 440.62C196.221 444.26 189.611 449.21 183.361 455.45C178.201 460.61 173.891 466.25 170.421 472.36C166.951 478.47 164.361 484.79 162.631 491.33C160.911 497.86 160.041 504.56 160.011 511.41C159.981 518.2 160.841 524.97 162.591 531.54C164.341 538.11 166.981 544.51 170.511 550.72C174.031 556.93 178.431 562.7 183.721 567.97C189.001 573.25 194.731 577.63 200.921 581.13C207.111 584.64 213.511 587.28 220.101 589.05C226.674 590.833 233.459 591.718 240.271 591.68C247.121 591.65 253.831 590.79 260.401 589.09C266.971 587.4 273.311 584.82 279.411 581.36C280.688 580.627 281.942 579.853 283.171 579.04C277.521 572.26 273.051 564.39 269.891 555.44L269.881 555.39ZM700.551 446.34C699.251 443.1 699.231 440.32 700.491 438.01C701.751 435.7 704.511 434.55 708.821 434.55H738.871C740.901 434.55 742.561 435.18 743.861 436.43C745.151 437.69 746.131 439.25 746.791 441.12L781.211 539.05L814.911 441.12C815.811 438.53 816.941 436.78 818.321 435.89C819.701 435 821.611 434.55 824.041 434.55H855.311C857.591 434.55 859.361 434.85 860.671 435.46C861.971 436.07 862.881 436.88 863.391 437.89C863.921 438.91 864.101 440.05 863.931 441.3C863.771 442.57 863.441 443.82 862.961 445.01C859.891 452.63 856.521 460.97 852.871 470.01C849.221 479.05 845.441 488.46 841.491 498.24C837.561 508.02 833.561 517.94 829.511 528.04C825.531 537.95 821.581 547.86 817.651 557.79C813.791 567.52 810.081 576.87 806.511 585.83C802.941 594.8 799.681 603.02 796.711 610.55C793.751 618.04 791.181 624.63 788.991 630.31C786.801 635.99 785.141 640.37 784.011 643.44L784.371 642.84C783.821 645.02 782.791 646.79 781.341 648.13C779.891 649.46 778.081 650.13 775.981 650.13H747.881C744.241 650.13 741.731 649.42 740.401 648.01C739.061 646.59 738.391 644.49 738.391 641.75C738.391 640.69 738.531 639.89 738.821 639.32C739.101 638.76 739.321 638.39 739.491 638.22L758.591 588.59L700.551 446.36V446.34ZM644.631 398.04C644.631 395.45 645.281 393.25 646.571 391.47C647.871 389.69 650.101 388.79 653.261 388.79H683.071C683.881 388.79 684.731 389.01 685.631 389.46C686.521 389.91 687.351 390.54 688.131 391.35C688.901 392.16 689.551 393.13 690.081 394.27C690.601 395.4 690.871 396.66 690.871 398.04V579.8C690.871 582.88 690.001 585.21 688.251 586.79C686.501 588.37 684.251 589.16 681.491 589.16H653.271C650.111 589.16 647.881 588.37 646.571 586.79C645.281 585.21 644.631 582.87 644.631 579.8V398.04ZM556.461 410.57C556.461 408.06 557.281 406.17 558.951 404.91C560.621 403.65 562.991 402.45 566.061 401.31L593.671 391.7C594.091 391.62 594.461 391.58 594.821 391.58H595.861C598.861 391.58 600.871 392.46 601.891 394.2C602.911 395.94 603.41 398.24 603.41 401.07L603.29 439.39H623.611C626.211 439.39 628.311 440.17 629.931 441.7C631.561 443.24 632.361 445.55 632.361 448.63V472.11C632.361 475.51 631.561 478.01 629.931 479.59C628.301 481.17 626.211 481.96 623.611 481.96H603.29L603.431 579.79C603.431 582.87 602.541 585.2 600.751 586.78C598.971 588.36 596.491 589.15 593.341 589.15H565.85C559.6 589.15 556.48 586.02 556.48 579.78L556.35 481.96H547.451C541.221 481.96 538.1 478.67 538.1 472.11V448.63C538.1 442.47 541.221 439.38 547.451 439.38H556.341L556.461 410.55V410.57ZM457.351 410.57C457.351 408.06 458.181 406.17 459.851 404.91C461.511 403.65 463.891 402.45 466.961 401.31L494.581 391.7C494.961 391.62 495.35 391.58 495.741 391.58H496.771C499.771 391.58 501.781 392.46 502.801 394.2C503.811 395.94 504.321 398.24 504.321 401.07L504.191 439.39H524.511C527.111 439.39 529.211 440.17 530.841 441.7C532.471 443.24 533.271 445.55 533.271 448.63V472.11C533.271 475.51 532.471 478.01 530.841 479.59C529.211 481.17 527.111 481.96 524.511 481.96H504.191L504.321 579.79C504.321 582.87 503.431 585.2 501.641 586.78C499.861 588.36 497.381 589.15 494.221 589.15H466.721C460.471 589.15 457.351 586.02 457.351 579.78L457.221 481.96H448.341C442.101 481.96 438.971 478.67 438.971 472.11V448.63C438.971 442.47 442.091 439.38 448.341 439.38H457.221L457.351 410.55V410.57ZM420.851 587.11C419.791 588 418.681 588.56 417.511 588.82C416.331 589.05 415.221 589.19 414.171 589.19H395.801C394.341 589.19 393.091 588.93 392.031 588.4C390.997 587.891 390.084 587.169 389.351 586.28C388.611 585.36 387.991 584.34 387.531 583.26C387.041 582.11 386.641 580.93 386.311 579.73L382.541 564.21C381.321 566.72 379.561 569.57 377.251 572.76C374.941 575.95 372.001 578.94 368.431 581.74C364.861 584.53 360.601 586.88 355.661 588.79C350.721 590.68 345.041 591.64 338.631 591.64C329.381 591.64 320.991 589.86 313.441 586.28C305.901 582.71 299.471 577.85 294.151 571.67C288.841 565.52 284.721 558.3 281.801 550.09C278.881 541.86 277.411 533.08 277.411 523.76V444.07C277.411 440.99 278.081 438.66 279.421 437.08C280.761 435.5 282.881 434.71 285.811 434.71H313.911C317.401 434.71 319.781 435.3 321.081 436.48C322.371 437.65 323.021 439.95 323.021 443.36V522.65C323.021 526.15 323.811 529.45 325.391 532.58C326.971 535.69 329.091 538.5 331.651 540.87C334.241 543.25 337.231 545.17 340.471 546.53C343.761 547.91 347.101 548.59 350.501 548.59C353.431 548.59 356.441 547.91 359.571 546.53C362.721 545.13 365.631 543.26 368.211 540.99C370.841 538.68 373.051 535.92 374.711 532.84C376.421 529.71 377.271 526.39 377.271 522.91V443.68C377.271 442.3 377.531 440.92 378.061 439.54C378.581 438.16 379.381 437.11 380.431 436.38C381.481 435.73 382.481 435.28 383.411 435.04C384.341 434.8 385.411 434.68 386.631 434.68H414.131C417.621 434.68 420.131 435.53 421.681 437.24C423.221 438.94 423.991 441.22 423.991 444.05V580.2C423.991 581.74 423.641 583.17 422.951 584.46C422.261 585.76 421.311 586.79 420.091 587.5L420.811 587.14L420.851 587.11Z" fill="white"/>
</g>
<defs>
<clipPath id="clip0_2_1950">
<rect width="1024" height="1024" fill="white"/>
</clipPath>
</defs>
</svg>

<svg xmlns="http://www.w3.org/2000/svg" viewBox="0 0 1024 1024">
   <circle cx="512" cy="512" r="512" style="fill:#005ef4"/>
   <path d="M269.88 555.39c-1.8-5.07-3.09-10.31-3.92-15.73-3.45 3.29-7.24 5.73-11.42 7.27-4.44 1.63-8.94 2.32-13.5 2.06s-9.09-1.44-13.59-3.52c-4.51-2.1-8.65-5.04-12.43-8.82-3.67-3.67-6.57-7.77-8.69-12.31-2.12-4.54-3.36-9.13-3.74-13.81-.37-4.67.23-9.25 1.81-13.76 1.58-4.5 4.17-8.56 7.79-12.17 3.27-3.27 6.88-5.82 10.84-7.65s8.03-3.18 12.22-4.04c1.55-.29 2.83-.67 3.82-1.16 1-.48 1.76-.98 2.28-1.5 2.29-2.3 2.84-5.66 1.64-10.07l-5.34-20.65c-.4-1.78-1.12-3.18-2.16-4.21-1.49-1.49-3.11-2.37-4.85-2.62-1.75-.26-3.63-.13-5.64.39h.51c-7.91 1.38-15.36 3.89-22.32 7.53-6.97 3.64-13.58 8.59-19.83 14.83-5.16 5.16-9.47 10.8-12.94 16.91-3.47 6.11-6.06 12.43-7.79 18.97-1.72 6.53-2.59 13.23-2.62 20.08-.03 6.79.83 13.56 2.58 20.13 1.75 6.57 4.39 12.97 7.92 19.18 3.52 6.21 7.92 11.98 13.21 17.25 5.28 5.28 11.01 9.66 17.2 13.16 6.19 3.51 12.59 6.15 19.18 7.92a75.472 75.472 0 0 0 20.17 2.63c6.85-.03 13.56-.89 20.13-2.59 6.57-1.69 12.91-4.27 19.01-7.73a68.99 68.99 0 0 0 3.76-2.32c-5.65-6.78-10.12-14.65-13.28-23.6Zm430.67-109.05c-1.3-3.24-1.32-6.02-.06-8.33 1.26-2.31 4.02-3.46 8.33-3.46h30.05c2.03 0 3.69.63 4.99 1.88 1.29 1.26 2.27 2.82 2.93 4.69l34.42 97.93 33.7-97.93c.9-2.59 2.03-4.34 3.41-5.23 1.38-.89 3.29-1.34 5.72-1.34h31.27c2.28 0 4.05.3 5.36.91 1.3.61 2.21 1.42 2.72 2.43.53 1.02.71 2.16.54 3.41-.16 1.27-.49 2.52-.97 3.71-3.07 7.62-6.44 15.96-10.09 25s-7.43 18.45-11.38 28.23c-3.93 9.78-7.93 19.7-11.98 29.8-3.98 9.91-7.93 19.82-11.86 29.75-3.86 9.73-7.57 19.08-11.14 28.04-3.57 8.97-6.83 17.19-9.8 24.72-2.96 7.49-5.53 14.08-7.72 19.76-2.19 5.68-3.85 10.06-4.98 13.13l.36-.6c-.55 2.18-1.58 3.95-3.03 5.29-1.45 1.33-3.26 2-5.36 2h-28.1c-3.64 0-6.15-.71-7.48-2.12-1.34-1.42-2.01-3.52-2.01-6.26 0-1.06.14-1.86.43-2.43.28-.56.5-.93.67-1.1l19.1-49.63-58.04-142.23Zm-55.92-48.3c0-2.59.65-4.79 1.94-6.57 1.3-1.78 3.53-2.68 6.69-2.68h29.81c.81 0 1.66.22 2.56.67.89.45 1.72 1.08 2.5 1.89.77.81 1.42 1.78 1.95 2.92.52 1.13.79 2.39.79 3.77V579.8c0 3.08-.87 5.41-2.62 6.99s-4 2.37-6.76 2.37h-28.22c-3.16 0-5.39-.79-6.7-2.37-1.29-1.58-1.94-3.92-1.94-6.99V398.04Zm-88.17 12.53c0-2.51.82-4.4 2.49-5.66 1.67-1.26 4.04-2.46 7.11-3.6l27.61-9.61c.42-.08.79-.12 1.15-.12h1.04c3 0 5.01.88 6.03 2.62 1.02 1.74 1.52 4.04 1.52 6.87l-.12 38.32h20.32c2.6 0 4.7.78 6.32 2.31 1.63 1.54 2.43 3.85 2.43 6.93v23.48c0 3.4-.8 5.9-2.43 7.48s-3.72 2.37-6.32 2.37h-20.32l.14 97.83c0 3.08-.89 5.41-2.68 6.99-1.78 1.58-4.26 2.37-7.41 2.37h-27.49c-6.25 0-9.37-3.13-9.37-9.37l-.13-97.82h-8.9c-6.23 0-9.35-3.29-9.35-9.85v-23.48c0-6.16 3.12-9.25 9.35-9.25h8.89l.12-28.83Zm-99.11 0c0-2.51.83-4.4 2.5-5.66 1.66-1.26 4.04-2.46 7.11-3.6l27.62-9.61c.38-.08.77-.12 1.16-.12h1.03c3 0 5.01.88 6.03 2.62 1.01 1.74 1.52 4.04 1.52 6.87l-.13 38.32h20.32c2.6 0 4.7.78 6.33 2.31 1.63 1.54 2.43 3.85 2.43 6.93v23.48c0 3.4-.8 5.9-2.43 7.48-1.63 1.58-3.73 2.37-6.33 2.37h-20.32l.13 97.83c0 3.08-.89 5.41-2.68 6.99-1.78 1.58-4.26 2.37-7.42 2.37h-27.5c-6.25 0-9.37-3.13-9.37-9.37l-.13-97.82h-8.88c-6.24 0-9.37-3.29-9.37-9.85v-23.48c0-6.16 3.12-9.25 9.37-9.25h8.88l.13-28.83Zm-36.5 176.54c-1.06.89-2.17 1.45-3.34 1.71-1.18.23-2.29.37-3.34.37H395.8c-1.46 0-2.71-.26-3.77-.79a8.13 8.13 0 0 1-2.68-2.12c-.74-.92-1.36-1.94-1.82-3.02-.49-1.15-.89-2.33-1.22-3.53l-3.77-15.52c-1.22 2.51-2.98 5.36-5.29 8.55-2.31 3.19-5.25 6.18-8.82 8.98-3.57 2.79-7.83 5.14-12.77 7.05-4.94 1.89-10.62 2.85-17.03 2.85-9.25 0-17.64-1.78-25.19-5.36-7.54-3.57-13.97-8.43-19.29-14.61-5.31-6.15-9.43-13.37-12.35-21.58-2.92-8.23-4.39-17.01-4.39-26.33v-79.69c0-3.08.67-5.41 2.01-6.99 1.34-1.58 3.46-2.37 6.39-2.37h28.1c3.49 0 5.87.59 7.17 1.77 1.29 1.17 1.94 3.47 1.94 6.88v79.29c0 3.5.79 6.8 2.37 9.93 1.58 3.11 3.7 5.92 6.26 8.29 2.59 2.38 5.58 4.3 8.82 5.66 3.29 1.38 6.63 2.06 10.03 2.06 2.93 0 5.94-.68 9.07-2.06 3.15-1.4 6.06-3.27 8.64-5.54 2.63-2.31 4.84-5.07 6.5-8.15 1.71-3.13 2.56-6.45 2.56-9.93v-79.23c0-1.38.26-2.76.79-4.14.52-1.38 1.32-2.43 2.37-3.16 1.05-.65 2.05-1.1 2.98-1.34.93-.24 2-.36 3.22-.36h27.5c3.49 0 6 .85 7.55 2.56 1.54 1.7 2.31 3.98 2.31 6.81V580.2c0 1.54-.35 2.97-1.04 4.26-.69 1.3-1.64 2.33-2.86 3.04l.72-.36Z" style="fill:#fff"/>
</svg>
